static/favicon.svg

<svg width="24" height="24" viewBox="0 0 24 24" fill="none" xmlns="http://www.w3.org/2000/svg">
<path d="M16 11V5H20C20.55 5 21.021 5.196 21.413 5.588C21.805 5.98 22.0007 6.45067 22 7V11H16ZM4 19C3.45 19 2.97933 18.8043 2.588 18.413C2.19667 18.0217 2.00067 17.5507 2 17V7C2 6.45 2.196 5.97933 2.588 5.588C2.98 5.19667 3.45067 5.00067 4 5H14V19H4ZM8 13.5C8.41667 13.5 8.771 13.3543 9.063 13.063C9.355 12.7717 9.50067 12.4173 9.5 12C9.49933 11.5827 9.35367 11.2287 9.063 10.938C8.77233 10.6473 8.418 10.5013 8 10.5C7.582 10.4987 7.228 10.6447 6.938 10.938C6.648 11.2313 6.502 11.5853 6.5 12C6.498 12.4147 6.644 12.769 6.938 13.063C7.232 13.357 7.586 13.5027 8 13.5ZM16 19V13H22V17C22 17.55 21.8043 18.021 21.413 18.413C21.0217 18.805 20.5507 19.0007 20 19H16Z" fill="#9747FF"/>
</svg>

<svg xmlns="http://www.w3.org/2000/svg" width="1em" height="1em" viewBox="0 0 24 24">
  <path fill="currentColor"
    d="M16 11V5h4q.825 0 1.413.588T22 7v4zM4 19q-.825 0-1.412-.587T2 17V7q0-.825.588-1.412T4 5h10v14zm4-5.5q.625 0 1.063-.437T9.5 12t-.437-1.062T8 10.5t-1.062.438T6.5 12t.438 1.063T8 13.5m8 5.5v-6h6v4q0 .825-.587 1.413T20 19z" />
</svg>
